src/lib/packages/icons/src/assets/filled/user-times.svg

<svg width="24" height="24" viewBox="0 0 24 24" fill="none" xmlns="http://www.w3.org/2000/svg">
<path d="M21.53 11.498C21.823 11.791 21.823 12.266 21.53 12.559C21.384 12.705 21.192 12.7791 21 12.7791C20.808 12.7791 20.616 12.706 20.47 12.559L19 11.089L17.53 12.559C17.384 12.705 17.192 12.7791 17 12.7791C16.808 12.7791 16.616 12.706 16.47 12.559C16.177 12.266 16.177 11.791 16.47 11.498L17.9399 10.028L16.47 8.55798C16.177 8.26498 16.177 7.78995 16.47 7.49695C16.763 7.20395 17.238 7.20395 17.531 7.49695L19.001 8.96704L20.4709 7.49695C20.7639 7.20395 21.239 7.20395 21.532 7.49695C21.825 7.78995 21.825 8.26498 21.532 8.55798L20.062 10.028L21.53 11.498ZM10.009 10.5C12.215 10.5 14.009 8.706 14.009 6.5C14.009 4.294 12.215 2.5 10.009 2.5C7.80303 2.5 6.00903 4.294 6.00903 6.5C6.00903 8.706 7.80303 10.5 10.009 10.5ZM12 12.5H8C3.94 12.5 2.5 15.473 2.5 18.019C2.5 20.296 3.71105 21.5 6.00305 21.5H13.9969C16.2889 21.5 17.5 20.296 17.5 18.019C17.5 15.473 16.06 12.5 12 12.5Z" fill="currentColor"/>
</svg>

<svg xmlns="http://www.w3.org/2000/svg" width="24" height="24" fill="none"><path fill="currentColor" d="M21.53 11.498a.75.75 0 0 1-1.06 1.061L19 11.089l-1.47 1.47a.748.748 0 0 1-1.06 0 .75.75 0 0 1 0-1.061l1.47-1.47-1.47-1.47a.75.75 0 0 1 1.061-1.061l1.47 1.47 1.47-1.47a.75.75 0 0 1 1.061 1.061l-1.47 1.47 1.468 1.47ZM10.009 10.5c2.206 0 4-1.794 4-4s-1.794-4-4-4-4 1.794-4 4 1.794 4 4 4Zm1.991 2H8c-4.06 0-5.5 2.973-5.5 5.519 0 2.277 1.211 3.481 3.503 3.481h7.994c2.292 0 3.503-1.204 3.503-3.481 0-2.546-1.44-5.519-5.5-5.519Z"/></svg>
